X:341
%%etbk:tnset id:102,pos:3,rep:3x,ant:
%%etbk:wsite http://www.thesession.org/tunes/display/1514
%%etbk:pldat 2016-06-22T15:12,2016-06-18T16:35,2016-05-04T16:21,2016-05-03T16:09,2016-03-10T18:01,2016-03-09T15:16,2016-03-07T18:07,2015-11-04T16:33,2015-10-29T18:28,2015-10-27T15:20,2015-10-24T12:58,2015-10-15T19:17,2015-06-23T19:01,2015-03-12T18:22,2015-03-09T18:03,2015-03-03T18:26,2014-11-05T18:32,2014-11-04T15:21,2014-11-02T13:23,2014-08-20T18:39,2014-06-25T15:20,2014-03-06T18:49,2014-03-05T18:22,2014-03-01T16:45,2014-02-25T18:13,2014-02-18T16:40,2013-10-30T16:15,2013-10-28T18:34,2013-10-24T18:43,2013-10-16T16:25,2013-10-15T18:25,2013-10-13T15:50,2013-10-09T16:52
T: Hughie Travers'
Z: Piano Box Version by Martin Fleischmann
H: Created 2013-02-19 /  Last Modified 2013-02-19
M: 6/8
L: 1/8
R: jig
K: Gmaj
|: "G"!4!d!2!B!1!A !2!B!1!B!2!B | !4!d!2!B!1!G "D"!2!ABA | "G"!1!G !2!(3B!3!^c!1!d !4!g2g | !2!e!1!d!2!B "D"!1!A2A |
"G"!4!d!2!B!1!A !2!B!1!B!2!B | !4!d!2!B!1!G "D"!2!ABA | "G"!1!G !2!(3B!3!^c!1!d !4!gfg | !2!e!1!d!2!B !1!G3:|!
|: "G"!1!B!2!dd !3!e!2!dd | !5!g!2!dd !3!e!2!dd |  !1!G !2!(3B!3!^c!1!d !4!g2g | !2!e!1!d!2!B "D"!1!A3 |
|1 "G"!1!B!2!dd !3!e!2!dd | !5!g!2!dd !3!e!2!dd  | !1!G !2!(3B!3!^c!1!d !4!gfg | !2!e!1!d!2!B !1!G3 :|
|2 "G"!4!d!2!B!1!A !2!B!1!B!2!B | !4!d!2!B!1!G "D"!2!ABA | "G"!1!G !2!(3B!3!^c!1!d !4!gfg | !2!e!1!d!2!B !1!G3||


